X:1
T:The God Who Answers by Fire
T:Lelia Naylor Morris, 1903
T:The God Who Answers by Fire
T:Public Domain
T:Public Domain
T:Public Domain
C:Lelia Naylor Morris, 1903
Z:Public Domain
%%score ( 1 2 ) ( 3 4 )
L:1/8
M:3/4
K:Eb
V:1 treble 
V:2 treble 
V:3 bass 
V:4 bass 
V:1
 [EB][E=A] [EB] | [EG]3 [EA] [DF][DG] | [B,E]3 [Ge] [Bd][Ac] | [GB][EG] [FA]2 [EG]2 | %4
w: 1.~Two al- tars|on a hill- side|made, Two off- erings|on the al- tar|
w: 2.~But now the|faith- ful pro- phet,|see, Up- on his|God calls might- i-|
w: 3.~Up- on God’s|al- tars still we|lay, Our hum- ble|off- erings day by|
w: 4.~As- cribe to|God for- ev- er-|more Thanks- giv- ing,|hon- or, love and|
 [DF]3 E [EG][GB] | [Ge]3 [Ed] [Ed]>[Ec] | [Ec]3 [Ac] [=Ac][Ac] | [Fd]3 [Ge] [Bd][=Ac] | %8
w: laid; Let Him be|who hears our cry,|And send- eth fire|down from on high.|
w: ly: “A- mong the|ple be it known,|That Thou art God,|and Thou a- lone.”|
w: day; Un- wor- thy|the sa- cri- fice,|The gift of love|He sanc- ti- fies,|
w: power; To God the|ther, God the Son,|And God the Spir-|it, three in One.|
 [FB]3 [GB] [FB][AB] | [GB]3 [EG] [_DG][DG] | [CA]3 [Ec] [EB]>[EB] | [EB][EG] [EB]2 [DB]2 | %12
w: From morn- ing light|till close of day,|Hear Ba- al’s pro-|phets loud- ly pray.|
w: And ev- en while|E- li- jah calls,|Be- hold, the fire|from Heav- en falls.|
w: He heeds the heart’s|sin- cere de- sire,|And sends the Ho-|ly Ghost and fire.|
w: In songs of praise|as- cend- ing higher,|To Him who an-|swers still by fire.|
 [EB]3 ||"^Refrain" ([EG]/[FA]/) | [GB]2 [GB][^F=A]>[GB][_Ac] | [GB]3- [GB]2 [EB] | %16
w: ||||
w: ||||
w: The|God *|who an- swers by fire,|The * God|
w: ||||
 [Ec]2 [Ec][Ec]>[Ed][Ee] | [GB]3- [GB]2 (B/c/) | (z2 F [GB]2) (B/c/) | z2 F [GB]2 (B/c/) | %20
w: ||||
w: ||||
w: who an- swers by fire,|Let * Him, *|* * let *|* * let *|
w: ||||
 [Fd]3 [Fc]3 | [Ff]3- [Ff]2 ([EG]/[FA]/) | [GB]2 [GB][^F=A]>[GB][Ac] | [GB]3- [GB]2 [EB] | %24
w: ||||
w: ||||
w: God. The|God * who *|an- swers by fire, The|God * who|
w: ||||
 [Ec]2 [Ec][Ec]>[Ed][Ee] | [GB]3- [GB]2 (G/A/) | (z2 G [GB]2) B | z2 A [Ac]2 [^Fc] | [GB]3 [Ad]3 | %29
w: |||||
w: |||||
w: an- swers by fire Let|Him, * let *|* * Him,|* * Him|* God.|
w: |||||
 [Ge]3- [Ge]2 |] %30
w: |
w: |
w: |
w: |
V:2
 x3 | x6 | x6 | x6 | x3 E x2 | x6 | x6 | x6 | x6 | x6 | x6 | x6 | x3 || x | x6 | x6 | x6 | x6 | %18
w: ||||God,||||||||||||||
w: ||||peo-||||||||||||||
w: ||||tho’||||||||||||||
w: ||||Fa-||||||||||||||
 B3- x3 | B3- _G x2 | x6 | x6 | x6 | x6 | x6 | x6 | B3- x3 | c3- x3 | x6 | x5 |] %30
w: ||||||||||||
w: ||||||||||||
w: Him,|Him be|||||||let|be|||
w: ||||||||||||
V:3
 [E,G,][E,^F,] [E,G,] | [E,B,]3 [E,C] [E,A,][E,B,] | [E,G,]3 [E,B,] [E,B,](C/D/) | %3
 [E,E][E,B,] [D,B,]2 [E,B,]2 | [B,,B,]3 [E,G,] [E,B,][E,E] | [E,B,]3 [G,B,] [G,B,]>A, | %6
 A,3 [A,E] [F,F][F,F] | B,3 [E,B,] [F,F][F,E] | [B,,D]3 [B,E] [B,D][B,F] | %9
 [E,E]3 [E,B,] [E,B,][E,B,] | [A,,A,]3 [A,,A,] [B,,G,]>[B,,G,] | [B,,G,][B,,B,] [B,,G,]2 (F,A,) | %12
 [E,G,]3 || [E,B,] | [E,E]2 [E,E][E,E]>[E,E][E,E] | (E,2 B,, [E,B,]2) [E,G,] | %16
 A,2 A,A,>[A,B,][A,C] | (E,2 B,, [E,E]2) z | z2 ([B,,D] [E,E]2) z | z2 ([B,,D] [E,E]2) [E,B,] | %20
 [F,B,]2 [F,B,] [F,=A,]2 [CE] | ([B,D]>[CE] [B,D]A, G,)[F,B,] | [E,E]2 [E,E][E,E]>[E,E][E,E] | %23
 (E,2 B,, [E,A,]2) [E,G,] | A,2 A,A,>[A,B,][A,C] | (E,2 B,, [E,E]2) z | z2 ([E,E] [E,E]2) z | %27
 z2 ([F,E] [A,E]2) [=A,E] | [B,E]2 [B,E] [B,,B,]2 [B,,B,] | [E,B,]3- [E,B,]2 |] %30
V:4
 x3 | x6 | x5 E, | x6 | x6 | x11/2 A,/ | A,3 x3 | B,3 x3 | x6 | x6 | x6 | x4 B,,2 | x3 || x | x6 | %15
 E3 x3 | A,2 A,A,3/2 x3/2 | E3 x3 | x6 | x6 | x6 | x3 B,2 x | x6 | E3 x3 | A,2 A,A,3/2 x3/2 | %25
 E3 x3 | x6 | x6 | x6 | x5 |] %30

